X:1
T:Title
%%score { ( 1 3 ) | ( 2 4 ) }
L:1/8
M:2/4
K:Eb
V:1 treble nm="Grand Piano"
V:3 treble 
V:2 bass 
V:4 bass 
V:1
 z2 z[Q:1/4=82] E/F/ | G>G G>[DF] | [DF]<E z E/E/ | [DF]>[DF] [DB]>[E_G] | G2 z E/F/ | %5
 G>G G>[A,DF] | [A,DF]<[G,E] z [G,E]/[G,E]/ | [A,DF]>[G,B,] [B,EG]>[A,DF] | [G,E]2 z [G,E]/[G,E]/ | %9
 [Cc]>[Ec] [Ec]>[Ec] | c<B z G/G/ | [Ec]>[Ec] [Fd]>[Fd] | [Ge]2 z [EG]/[EG]/ | [Ge]>[Ge] d>d | %14
 c<c z [CEc]/[E_Gc]/ | [EGB]>[EG] [DF]>[E_G] | %16
 [EG]2 [EAc]>[CFe][Q:1/4=80][Q:1/4=79][Q:1/4=77][Q:1/4=75][Q:1/4=73][Q:1/4=72][Q:1/4=70][Q:1/4=68][Q:1/4=67][Q:1/4=65][Q:1/4=63] | %17
 [EGB]2 z F | [B,EG]2 [A,DF]2 |[M:3/8] [G,E]2 z |] %20
V:2
 z2 z [E,G,]/[E,A,E]/ | [E,B,E]>[E,B,E] [E,B,E]>[B,,A,] | [B,,A,]<[E,G,] z [E,G,]/[E,G,]/ | %3
 [B,,B,]>[B,,B,] [B,,B,]>[B,,B,] | [E,B,E]2 z [E,G,]/[E,A,E]/ | [E,B,E]>[E,B,E] [E,B,E]>B,, | %6
 B,,<E, z E,/E,/ | B,,>B,, B,,>B,, | E,2 z E,/E,/ | [A,,A,]>[A,,A,] [A,,A,]>[A,,A,] | %10
 [E,A,E]<[E,G,E] z [E,B,E]/[E,B,E]/ | [C,C]>[C,C] [G,=B,]>[G,B,] | [C,C]2 z [C,C]/[C,C]/ | %13
 [C,C]>[C,C][K:treble] [G,=B,F]>[G,B,F] | [A,CE]<[A,CE] z A,,/=A,,/ | B,,>[B,,B,] [B,,B,]>[B,,B,] | %16
 [E,B,]2 [A,,A,]>[=A,,=A,] | [B,,B,]2 G,=A, | B,,2 B,,2 |[M:3/8] E,2 z |] %20
V:3
 x4 | x4 | x4 | x4 | x4 | x4 | x4 | x4 | x4 | x4 | x4 | x4 | x4 | x4 | x4 | x4 | x4 | z2 E2 | x4 | %19
[M:3/8] x3 |] %20
V:4
 x4 | x4 | x4 | x4 | x4 | x4 | x4 | x4 | x4 | x4 | x4 | x4 | x4 | x2[K:treble] x2 | x4 | x4 | x4 | %17
 z2 C,2 | x4 |[M:3/8] x3 |] %20

